src/pos-icons/fire-hydrant-alert.svg

<svg height="24" viewBox="0 0 24 24" width="24" xmlns="http://www.w3.org/2000/svg"><path d="m22 7h-2v6h2zm0 8h-2v2h2zm-19 0v-1h-1v-2h1v-1h2v4zm14-3v-1h-2v4h2v-1h1v-2zm-1-6h-2.14c-.36-1.4-1.46-2.5-2.86-2.86v-1.14h-2v1.14c-1.4.36-2.5 1.46-2.86 2.86h-2.14v2h12zm0 16h-12c0-1.1.89-2 2-2v-11h8v11c1.11 0 2 .9 2 2m-8-9c0 1.11.9 2 2 2s2-.89 2-2-.89-2-2-2-2 .9-2 2z"/></svg>

<?xml version="1.0" encoding="UTF-8"?><!DOCTYPE svg PUBLIC "-//W3C//DTD SVG 1.1//EN" "http://www.w3.org/Graphics/SVG/1.1/DTD/svg11.dtd"><svg xmlns="http://www.w3.org/2000/svg" xmlns:xlink="http://www.w3.org/1999/xlink" version="1.1" id="mdi-fire-hydrant-alert" width="24" height="24" viewBox="0 0 24 24"><path d="M22 7H20V13H22V7M22 15H20V17H22V15M3 15V14H2V12H3V11H5V15H3M17 12V11H15V15H17V14H18V12H17M16 6H13.86C13.5 4.6 12.4 3.5 11 3.14V2H9V3.14C7.6 3.5 6.5 4.6 6.14 6H4V8H16V6M16 22H4C4 20.9 4.89 20 6 20V9H14V20C15.11 20 16 20.9 16 22M8 13C8 14.11 8.9 15 10 15S12 14.11 12 13 11.11 11 10 11 8 11.9 8 13Z" /></svg>
